X: 857
T: Sally Ann's Reel
B: jims roots
M:4/4
L:1/8
R: reel
Q: 1/4=100
K:Gmaj
V:1 
(3DEF |: "G"GBAG E2ed | "C"BGAG EGDE | "G"GBAG E2ed | "D"BGAF "G"G2 DE |
"G"GBAG E2ed | "C"BGAG EGDE | "G"GBAG E2ed | [1 "D"BGAF "G"G3D :| [2 "D"BGAF "G"Ggef ||
|: "Em"g2ef gfeg | "D"fdad bdad | "Em"gfef gfed | "D"BGAG "G"EG ~G2 |
   "Em"g2ef gfeg | "D"fdad bdad | "Em"b2ab gded | [1 "D"BGAG "G"EGGf :| [2 "D"BGAG "G"EGGD ||
% abcbook-tune_id 6298c287e932ad7277898137


% abcbook-boost 0
% abcbook-tablature 
% abcbook-transpose 
% abcbook-lastupdated 1654178440013
% abcbook-soundfonts 
% abcbook-repeats 1


